assets/svg/wallet_emptyicon.svg

<svg width="36" height="36" viewBox="0 0 36 36" fill="none" xmlns="http://www.w3.org/2000/svg">
<g clip-path="url(#clip0_52761_194010)">
<rect width="36" height="36" rx="10" fill="#B8BCCA"/>
<path d="M28 11.125C28 11.8281 27.4414 12.4766 26.5 13C25.3633 13.6289 23.668 14.0742 21.7227 14.207C21.5781 14.1367 21.4336 14.0703 21.2812 14.0117C19.7422 13.3672 17.6953 13 15.5 13C15.1758 13 14.8594 13.0078 14.543 13.0234L14.5 13C13.5586 12.4766 13 11.8281 13 11.125C13 9.39844 16.3594 8 20.5 8C24.6406 8 28 9.39844 28 11.125ZM14.2773 14.293C14.6758 14.2656 15.0859 14.25 15.5 14.25C17.9297 14.25 20.0859 14.7305 21.457 15.4766C22.4258 16.0039 23 16.6602 23 17.375C23 17.5312 22.9727 17.6836 22.918 17.832C22.7383 18.3477 22.2539 18.8203 21.5508 19.2188C21.5469 19.2227 21.5391 19.2227 21.5352 19.2266C21.5234 19.2344 21.5117 19.2383 21.5 19.2461C20.1328 20.0039 17.9531 20.4961 15.5 20.4961C13.1719 20.4961 11.0898 20.0547 9.71094 19.3594C9.63672 19.3242 9.56641 19.2852 9.49609 19.2461C8.55859 18.7266 8 18.0781 8 17.375C8 16.0156 10.0859 14.8555 13 14.4297C13.4102 14.3711 13.8359 14.3242 14.2773 14.293ZM24.25 17.375C24.25 16.5195 23.8359 15.8164 23.3086 15.2891C24.4141 15.1172 25.4258 14.8438 26.2852 14.4883C26.9219 14.2227 27.5156 13.8945 28 13.4922V14.875C28 15.6289 27.3555 16.3242 26.2891 16.8633C25.7188 17.1523 25.0234 17.3984 24.2422 17.5859C24.2461 17.5156 24.25 17.4492 24.25 17.3789V17.375ZM23 21.125C23 21.8281 22.4414 22.4766 21.5 23C21.4297 23.0391 21.3594 23.0742 21.2852 23.1133C19.9102 23.8086 17.8281 24.25 15.5 24.25C13.0469 24.25 10.8672 23.7578 9.5 23C8.55859 22.4766 8 21.8281 8 21.125V19.7422C8.48828 20.1445 9.07813 20.4727 9.71484 20.7383C11.2578 21.3828 13.3047 21.75 15.5 21.75C17.6953 21.75 19.7422 21.3828 21.2852 20.7383C21.5898 20.6133 21.8828 20.4688 22.1602 20.3125C22.3984 20.1797 22.6211 20.0312 22.832 19.875C22.8906 19.832 22.9453 19.7852 23 19.7422V21.125ZM24.25 21.125V18.8633C24.9922 18.6992 25.6758 18.4922 26.2852 18.2383C26.9219 17.9727 27.5156 17.6445 28 17.2422V18.625C28 19.0352 27.8047 19.4453 27.418 19.832C26.7812 20.4688 25.6602 20.9922 24.2422 21.332C24.2461 21.2656 24.25 21.1953 24.25 21.125ZM15.5 25.5C17.6953 25.5 19.7422 25.1328 21.2852 24.4883C21.9219 24.2227 22.5156 23.8945 23 23.4922V24.875C23 26.6016 19.6406 28 15.5 28C11.3594 28 8 26.6016 8 24.875V23.4922C8.48828 23.8945 9.07813 24.2227 9.71484 24.4883C11.2578 25.1328 13.3047 25.5 15.5 25.5Z" fill="white"/>
</g>
<defs>
<clipPath id="clip0_52761_194010">
<rect width="36" height="36" fill="white"/>
</clipPath>
</defs>
</svg>

<svg xmlns="http://www.w3.org/2000/svg" width="36" height="36" fill="none"><g clip-path="url(#a)"><rect width="36" height="36" fill="#B8BCCA" rx="10"/><path fill="#fff" d="M28 11.125c0 .703-.559 1.352-1.5 1.875-1.137.629-2.832 1.074-4.777 1.207a6 6 0 0 0-.442-.195C19.742 13.367 17.695 13 15.5 13c-.324 0-.64.008-.957.023L14.5 13c-.941-.523-1.5-1.172-1.5-1.875C13 9.398 16.36 8 20.5 8S28 9.398 28 11.125m-13.723 3.168q.6-.042 1.223-.043c2.43 0 4.586.48 5.957 1.227.969.527 1.543 1.183 1.543 1.898q0 .235-.082.457c-.18.516-.664.988-1.367 1.387-.004.004-.012.004-.016.008-.012.007-.023.011-.035.02-1.367.757-3.547 1.25-6 1.25-2.328 0-4.41-.442-5.79-1.138a4 4 0 0 1-.214-.113C8.56 18.726 8 18.078 8 17.375c0-1.36 2.086-2.52 5-2.945q.615-.09 1.277-.137m9.973 3.082c0-.855-.414-1.559-.941-2.086 1.105-.172 2.117-.445 2.976-.8.637-.266 1.23-.594 1.715-.997v1.383c0 .754-.645 1.45-1.71 1.988-.571.29-1.267.535-2.048.723q.007-.104.008-.207zM23 21.125c0 .703-.559 1.352-1.5 1.875-.07.04-.14.074-.215.113-1.375.696-3.457 1.137-5.785 1.137-2.453 0-4.633-.492-6-1.25-.941-.523-1.5-1.172-1.5-1.875v-1.383c.488.402 1.078.73 1.715.996 1.543.645 3.59 1.012 5.785 1.012s4.242-.367 5.785-1.012c.305-.125.598-.27.875-.425.238-.133.461-.282.672-.438.059-.043.113-.09.168-.133zm1.25 0v-2.262a12 12 0 0 0 2.035-.625c.637-.265 1.23-.593 1.715-.996v1.383c0 .41-.195.82-.582 1.207-.637.637-1.758 1.16-3.176 1.5q.007-.1.008-.207M15.5 25.5c2.195 0 4.242-.367 5.785-1.012.637-.265 1.23-.593 1.715-.996v1.383C23 26.602 19.64 28 15.5 28S8 26.602 8 24.875v-1.383c.488.402 1.078.73 1.715.996 1.543.645 3.59 1.012 5.785 1.012"/></g><defs><clipPath id="a"><path fill="#fff" d="M0 0h36v36H0z"/></clipPath></defs></svg>
